X:1
T:Run Come See Jerusalem
M:4/4
L:1/8
K:E
 GG G| G2 F E2 E C2| B,B, B,2 B2 B2| B4 B2 B2| B4- BB BB| B2 B2 BB B2|\
 BB A2 A2 A2| G3 G F2 F2| E4 z||

